src/components/icons/hjalm.svg

<?xml version="1.0" encoding="UTF-8"?>
<svg width="55px" height="32px" viewBox="0 0 55 32" version="1.1" xmlns="http://www.w3.org/2000/svg" xmlns:xlink="http://www.w3.org/1999/xlink">
    <!-- Generator: Sketch 50 (54983) - http://www.bohemiancoding.com/sketch -->
    <title>Fill 1</title>
    <desc>Created with Sketch.</desc>
    <defs></defs>
    <g id="Page-1" stroke="none" stroke-width="1" fill="none" fill-rule="evenodd">
        <g id="disturbances" transform="translate(-41.000000, -260.000000)" fill="#000000">
            <g id="Bygghjalm_Gul-Copy" transform="translate(41.000000, 260.000000)">
                <path d="M52.975143,24.4098292 L52.8279889,25.5246946 L43.9419305,24.4015841 L43.8897412,24.3949557 L44.0367301,23.2800903 L52.975143,24.4098292 Z M44.9883595,7.66550807 C48.7928953,11.4433756 51.1460393,16.6579904 51.1460393,22.4268044 C51.1460393,22.4874301 51.1440574,22.5477324 51.1435619,22.6083581 L43.4519124,21.6365692 C43.244146,21.6098939 43.0302689,21.6668012 42.8644521,21.7917709 C42.6984703,21.9172256 42.588146,22.1050843 42.5612256,22.3087865 L42.3110141,24.2074204 C41.2049637,24.077924 34.9916264,23.4027967 33.4107523,23.2556784 C31.8231067,23.1085601 30.6222568,23.0141458 30.0179506,23.0118824 C28.1528429,23.0065474 20.5604521,22.9766387 14.4534753,22.9601485 C13.550567,22.9578852 12.680855,22.9557835 11.8663051,22.9538435 C11.8958681,17.979953 13.9358761,13.4873494 17.2201702,10.2256891 C20.5303937,6.9410719 25.0913444,4.9140733 30.1363676,4.91374997 L41.5659949,4.91374997 C42.801858,5.71142193 43.9491974,6.63422525 44.9883595,7.66550807 Z M10.7706596,14.3192951 L10.7706596,7.14590578 C10.7726415,5.96119963 11.7703494,4.98439906 12.9811087,4.98213571 L18.5969114,4.98213571 L18.7946032,4.85603434 C22.0676667,2.76711674 25.9562669,1.55719032 30.1363676,1.55719032 C33.1806898,1.55735199 36.0715821,2.20030728 38.6823696,3.35688312 L30.1363676,3.35688312 C24.6507079,3.35639812 19.6780231,5.5667287 16.0876948,9.13281061 C12.5206536,12.6730256 10.3059104,17.5594534 10.2756868,22.9509334 C9.87171499,22.9501251 9.48937864,22.9498018 9.13363241,22.9494784 C9.12933835,22.7756849 9.12570492,22.6014063 9.12570492,22.4268044 C9.12570492,19.6032656 9.69053876,16.9148815 10.711864,14.4604316 L10.7706596,14.3192951 Z M52.4659668,28.427451 C52.1386274,28.3863872 38.7365408,26.764368 37.6802024,26.6503918 C35.1427442,26.3776572 32.2411168,25.9232073 29.3830906,25.9219139 C27.8699305,25.9222372 26.3651933,26.051087 24.9288308,26.4151642 C24.7509577,26.4599464 23.2437432,26.9173063 22.6815518,27.1016083 C17.8796385,28.6759354 13.7731974,30.4534796 9.21720139,30.4429712 C7.61617823,30.4429712 5.95107451,30.2298922 4.15434137,29.7123916 C3.37530009,29.4891275 2.63820844,29.2089561 2.15793453,28.9252281 C1.91763241,28.7855466 1.74636554,28.64441 1.66461328,28.546924 C1.62266363,28.4982618 1.60317521,28.4622097 1.59574319,28.4445879 C1.58979757,28.4290677 1.59144913,28.4290677 1.59029304,28.4290677 C1.59095366,28.4287444 1.58798085,28.4266427 1.60234943,28.3936623 C1.63207753,28.2977929 1.92110069,27.960876 2.63077642,27.5914636 C4.29901811,26.7013173 8.53477642,24.5304339 8.58168075,24.5061836 C8.78663946,24.5061836 30.0136566,24.5682643 30.0136566,24.5682643 C30.4737815,24.5682643 31.6994048,24.6596069 33.2601299,24.8054318 C36.1764562,25.0767114 40.3588691,25.5369814 43.7173182,25.9430925 L52.6392155,27.0704063 L52.4659668,28.427451 Z M54.656432,23.6687412 C54.6523031,23.6254141 54.6453666,23.5822486 54.6343011,23.5402148 C54.6336405,23.5376281 54.633145,23.5345564 54.6323192,23.5316464 C54.619437,23.4858942 54.6019305,23.4411121 54.5806254,23.3981083 C54.5776526,23.3918032 54.573854,23.3858215 54.5708812,23.3798397 C54.5523837,23.3444344 54.5305831,23.3106457 54.5063051,23.2784736 C54.5023414,23.2731386 54.499864,23.2669952 54.4959003,23.2619835 C54.4935881,23.2589118 54.4904501,23.2569717 54.4883031,23.2537384 C54.4590705,23.217848 54.4270302,23.184706 54.3921823,23.1543123 C54.3868973,23.1499473 54.3811168,23.1463906 54.3758318,23.1420255 C54.3558479,23.1255353 54.335864,23.1088835 54.3137331,23.09401 C54.3013464,23.0857649 54.2878036,23.0794598 54.2749214,23.0718614 C54.2664985,23.0668497 54.2577452,23.061838 54.2491571,23.0571496 C54.2068771,23.0343543 54.1627804,23.0151158 54.1171974,23.0002423 C54.0717794,22.9850455 54.0252054,22.9743754 53.9781359,22.967747 C53.9746677,22.9674236 53.9713645,22.9658069 53.9680614,22.9654836 L52.7308771,22.8091502 C52.7330242,22.6815939 52.7364924,22.5546841 52.7364924,22.4268044 C52.7368227,16.2395925 50.2087784,10.6295368 46.121,6.57262958 C42.0348731,2.51426734 36.3781118,-0.000484864889 30.1363676,1.40357701e-07 C25.7255438,-0.000484864889 21.6042387,1.25600206 18.1260513,3.42543053 L12.9811087,3.42543053 C10.8849476,3.42834056 9.18301408,5.09449526 9.18004127,7.14590578 L9.18004127,14.0156818 C8.11990431,16.6136932 7.53492143,19.4542073 7.53492143,22.4268044 C7.53492143,22.7116642 7.5407019,22.9949072 7.55143704,23.2771803 C5.65874822,24.2488075 3.7566455,25.2175246 1.87006746,26.2240722 C1.30143503,26.5281705 0.868726067,26.8316221 0.543698877,27.1814725 C0.222470277,27.5250179 -0.00115107288,27.9586126 5.01976781e-06,28.4290677 C-0.00115107288,28.8726858 0.197531707,29.260205 0.444935533,29.5455498 C0.821821737,29.9788211 1.31662939,30.274351 1.87535245,30.5406189 C2.43407551,30.80236 3.06298991,31.0201274 3.70495165,31.2055611 C5.64421449,31.7647721 7.47100603,32.000323 9.21720139,31.9999997 C14.794853,31.9886829 19.4648066,29.6527359 24.8630987,28.0489853 C26.2494189,27.6333358 27.7850403,27.4779724 29.3830906,27.4786191 C32.0695196,27.4773257 34.9158197,27.9165788 37.5059627,28.1982052 C39.8282225,28.4489529 43.7191349,28.9173063 47.0247341,29.3229324 C50.3311591,29.7283968 53.0489678,30.0703255 53.0547482,30.0709721 C53.2656526,30.0974858 53.4754008,30.0417101 53.6435297,29.9141538 C53.810998,29.7869207 53.9190101,29.6018104 53.945435,29.3953598 L54.6551108,23.8338047 C54.6610564,23.7874058 54.6612215,23.7416537 54.6587442,23.6962248 C54.6582487,23.6870097 54.6570926,23.6777946 54.656432,23.6687412 Z" id="Fill-1"></path>
            </g>
        </g>
    </g>
</svg>

<svg width="55" height="32" xmlns="http://www.w3.org/2000/svg"><path d="M52.975 24.41l-.147 1.115-8.886-1.123-.052-.007.147-1.115 8.938 1.13zM44.988 7.666c3.805 3.777 6.158 8.992 6.158 14.76l-.002.182-7.692-.971a.812.812 0 0 0-.588.155.78.78 0 0 0-.303.517l-.25 1.898c-1.106-.13-7.32-.804-8.9-.951-1.588-.147-2.789-.242-3.393-.244-1.865-.005-9.458-.035-15.565-.052l-2.587-.006c.03-4.974 2.07-9.467 5.354-12.728a18.272 18.272 0 0 1 12.916-5.312h11.43a21.112 21.112 0 0 1 3.422 2.752zm-34.217 6.653V7.146c.002-1.185 1-2.162 2.21-2.164h5.616l.198-.126a21.003 21.003 0 0 1 11.341-3.299c3.045 0 5.936.643 8.546 1.8h-8.546a19.881 19.881 0 0 0-14.048 5.776c-3.567 3.54-5.782 8.426-5.812 13.818l-1.142-.002a20.68 20.68 0 0 1 1.578-8.489l.059-.14zm41.695 14.108c-.327-.04-13.73-1.663-14.786-1.777-2.537-.272-5.439-.727-8.297-.728-1.513 0-3.018.13-4.454.493-.178.045-1.685.502-2.247.687-4.802 1.574-8.909 3.351-13.465 3.341-1.6 0-3.266-.213-5.063-.73-.779-.224-1.516-.504-1.996-.788a1.99 1.99 0 0 1-.493-.378.417.417 0 0 1-.07-.102l-.005-.016c.001 0-.002-.002.012-.035.03-.096.32-.433 1.029-.803 1.668-.89 5.904-3.06 5.95-3.085l21.433.062c.46 0 1.685.092 3.246.237 2.916.272 7.099.732 10.457 1.138l8.922 1.127-.173 1.357zm2.19-4.758a.805.805 0 0 0-.022-.129c0-.002 0-.005-.002-.008a.774.774 0 0 0-.051-.134l-.01-.018a.73.73 0 0 0-.065-.102l-.01-.016-.008-.008a.813.813 0 0 0-.096-.1l-.016-.012c-.02-.016-.04-.033-.062-.048l-.04-.022a.81.81 0 0 0-.296-.104l-.01-.003-1.237-.156c.002-.127.005-.254.005-.382 0-6.187-2.527-11.797-6.615-15.854A22.62 22.62 0 0 0 30.136 0c-4.41 0-8.532 1.256-12.01 3.425h-5.145c-2.096.003-3.798 1.67-3.801 3.72v6.87a22.216 22.216 0 0 0-1.629 9.262c-1.892.972-3.794 1.94-5.68 2.947-.57.304-1.002.608-1.327.957-.322.344-.545.778-.544 1.248-.001.444.198.831.445 1.117.377.433.872.728 1.43.995.56.261 1.188.48 1.83.665 1.94.559 3.766.794 5.512.794 5.578-.011 10.248-2.347 15.646-3.951 1.386-.416 2.922-.571 4.52-.57 2.687-.002 5.533.438 8.123.72 2.322.25 6.213.718 9.519 1.124 3.306.405 6.024.747 6.03.748.21.026.42-.03.589-.157a.773.773 0 0 0 .301-.519l.71-5.561a.754.754 0 0 0 .004-.138l-.003-.027z" fill="#000" fill-rule="evenodd"/></svg>
